brandFactory_export/1.Light/Web _1Light.svg

<?xml version="1.0" encoding="UTF-8"?>
<svg width="24px" height="24px" viewBox="0 0 24 24" version="1.1" xmlns="http://www.w3.org/2000/svg" xmlns:xlink="http://www.w3.org/1999/xlink">
    <title>1.Light/Web _1Light</title>
    <g id="Symbols" stroke="none" stroke-width="1" fill="none" fill-rule="evenodd">
        <g id="1.Light/Web-_1Light" fill="#5CB615" fill-rule="nonzero">
            <path d="M22.1176471,19.789916 C22.4033613,19.789916 22.6386555,19.5647059 22.6386555,19.2857143 L22.6386555,7.85378151 L0.98487395,7.85378151 L0.98487395,19.2857143 C0.98487395,19.5647059 1.21680672,19.789916 1.50588235,19.789916 L22.1176471,19.789916 Z M1.50588235,3.98487395 C1.22016807,3.98487395 0.98487395,4.21344538 0.98487395,4.48907563 L0.98487395,6.89915966 L22.6386555,6.89915966 L22.6386555,4.48907563 C22.6386555,4.21008403 22.4067227,3.98487395 22.1176471,3.98487395 L1.50588235,3.98487395 Z M22.1176471,3.0302521 C22.9478992,3.0302521 23.6235294,3.68571429 23.6235294,4.48907563 L23.6235294,19.2890756 C23.6235294,20.092437 22.9478992,20.7478992 22.1176471,20.7478992 L1.50588235,20.7478992 C0.675630252,20.7478992 0,20.092437 0,19.2890756 L0,4.48907563 C0,3.68571429 0.675630252,3.0302521 1.50588235,3.0302521 L22.1176471,3.0302521 Z M5.2907563,10.1529412 L8.63193277,13.0907563 C8.73277311,13.1815126 8.79327731,13.3092437 8.79327731,13.4436975 C8.79327731,13.5781513 8.73613445,13.7058824 8.63529412,13.7966387 L5.29411765,16.7882353 C5.2,16.8722689 5.0789916,16.9159664 4.95798319,16.9159664 C4.82352941,16.9159664 4.69243697,16.8655462 4.59495798,16.7647059 C4.41008403,16.5697479 4.42352941,16.2672269 4.62184874,16.0890756 L7.56638655,13.4504202 L4.62521008,10.8621849 C4.42352941,10.6840336 4.40672269,10.3815126 4.59159664,10.1865546 C4.77647059,9.99159664 5.08907563,9.97815126 5.2907563,10.1529412 L5.2907563,10.1529412 Z M18.5411765,12.9932773 C18.8134454,12.9932773 19.0352941,13.2084034 19.0352941,13.4705882 C19.0352941,13.7327731 18.8134454,13.9478992 18.5411765,13.9478992 L10.6218487,13.9478992 C10.3495798,13.9478992 10.1277311,13.7327731 10.1277311,13.4705882 C10.1277311,13.2084034 10.3462185,12.9932773 10.6218487,12.9932773 L18.5411765,12.9932773 Z M5.02857143,6.17647059 C4.6487395,6.17647059 4.34285714,5.87731092 4.34285714,5.51428571 C4.34285714,5.14789916 4.6487395,4.8487395 5.02857143,4.8487395 C5.40840336,4.8487395 5.71428571,5.14453782 5.71428571,5.51428571 C5.71428571,5.87731092 5.40840336,6.17647059 5.02857143,6.17647059 Z M7.08571429,6.17647059 C6.70588235,6.17647059 6.4,5.87731092 6.4,5.51428571 C6.4,5.14789916 6.70588235,4.8487395 7.08571429,4.8487395 C7.46554622,4.8487395 7.76806723,5.14453782 7.76806723,5.51428571 C7.76806723,5.87731092 7.46554622,6.17647059 7.08571429,6.17647059 Z M2.97478992,6.17647059 C2.59495798,6.17647059 2.28907563,5.87731092 2.28907563,5.51428571 C2.28907563,5.14789916 2.59495798,4.8487395 2.97478992,4.8487395 C3.35462185,4.8487395 3.6605042,5.14453782 3.6605042,5.51428571 C3.6605042,5.87731092 3.35462185,6.17647059 2.97478992,6.17647059 L2.97478992,6.17647059 Z" id="Web-_1Light"></path>
        </g>
    </g>
</svg>

<svg width="24" height="24" viewBox="0 0 24 24" xmlns="http://www.w3.org/2000/svg"><path d="M22.118 19.79a.514.514 0 00.52-.504V7.854H.986v11.432c0 .279.232.504.52.504h20.613zM1.506 3.985a.516.516 0 00-.521.504V6.9h21.654V4.49a.512.512 0 00-.521-.504H1.506zm20.612-.955c.83 0 1.506.656 1.506 1.46v14.8c0 .802-.676 1.458-1.506 1.458H1.506c-.83 0-1.506-.656-1.506-1.459V4.49C0 3.686.676 3.03 1.506 3.03h20.612zM5.29 10.153l3.34 2.938c.102.09.162.218.162.353a.474.474 0 01-.158.353l-3.34 2.991a.506.506 0 01-.7-.023.47.47 0 01.027-.676l2.944-2.639-2.94-2.588a.467.467 0 01-.034-.675.51.51 0 01.699-.034zm13.25 2.84c.272 0 .494.215.494.478a.487.487 0 01-.494.477h-7.92a.487.487 0 01-.493-.477c0-.263.218-.478.494-.478h7.92zM5.03 6.176c-.38 0-.686-.299-.686-.662 0-.366.306-.665.686-.665.38 0 .685.296.685.665a.675.675 0 01-.685.662zm2.057 0c-.38 0-.686-.299-.686-.662 0-.366.306-.665.686-.665a.67.67 0 01.682.665.672.672 0 01-.682.662zm-4.111 0c-.38 0-.686-.299-.686-.662 0-.366.306-.665.686-.665.38 0 .686.296.686.665a.675.675 0 01-.686.662z" fill="#5CB615" fill-rule="nonzero"/></svg>
